!!!COM: Beethoven, Ludwig van
!!!CDT: 1770///-1827///
!!!OTL: Piano Sonata no. 6 in F major
!!!ODT: 1795///-1797///
!!!OMD: Allegretto
!!!OPS: 10
!!!ONM: 2
!!!OMV: 2
**kern	**dynam	**kern	**dynam
*staff2	*staff2	*staff1	*staff1
*Ipiano	*Ipiano	*Ipiano	*Ipiano
*>[A,A,B,B,C]	*>[A,A,B,B,C]	*>[A,A,B,B,C]	*>[A,A,B,B,C]
*>norep[A,B,C]	*>norep[A,B,C]	*>norep[A,B,C]	*>norep[A,B,C]
*>A	*>A	*>A	*>A
*clefF4	*clefF4	*clefF4	*clefF4
*k[b-e-a-d-]	*k[b-e-a-d-]	*k[b-e-a-d-]	*k[b-e-a-d-]
*f:	*f:	*f:	*f:
*M3/4	*M3/4	*M3/4	*M3/4
*MM160	*MM160	*MM160	*MM160
4CC/	p	4C/	p
=1	=1	=1	=1
4FF/	.	4F\	.
4AA-/	.	4A-\	.
4EEn/	.	4En\	.
=2	=2	=2	=2
4FF/	.	4F\	.
4AA-/	.	4A-\	.
4C/	.	4c\	.
*	*	*clefG2	*clefG2
=3	=3	=3	=3
4D-\	.	4d-/	.
4BB-/	.	4B-/	.
4En\	.	4en/	.
=4	=4	=4	=4
4F\	.	4f/	.
4C/	.	4c/	.
4G\	.	4g/	.
=5	=5	=5	=5
*	*	*^	*
4A-\	.	2a-/	4a-\	.
4F\	.	.	4f\	.
4G\ 4B-\	.	4b-/	[4e-\	.
=6	=6	=6	=6	=6
*^	*	*	*	*
2A-/ 2c/	4A-\	.	2a-/ 2cc/	4e-\]	.
.	4F\	.	.	2f\	.
.	.	.	(ee-q/	.	.
4r	4D-\	.	4b-/ 4dd-/)	.	.
*v	*v	*	*	*	*
*	*	*v	*v	*
=7	=7	=7	=7
4E-\	.	(2e-/ 2a-/ 2cc/	.
4EE-/	.	.	.
4EE-/	.	4d-/) 4g/ 4b-/	.
=8	=8	=8	=8
4AA-'/	.	4c/ 4a-/	.
4AAA-'/	.	4r	.
=:|!|:	=:|!|:	=:|!|:	=:|!|:
*>B	*>B	*>B	*>B
4r	.	4cc/	.
=9	=9	=9	=9
*	*	*^	*
4r	.	(4cc/	4r	.
4r	.	8dd-/L	4r	.
.	.	8cc/J	.	.
4A-'\ 4c'\	.	4dd-'/)	4f'\	.
=10	=10	=10	=10	=10
2B-\ 2d-\	.	4dd-/	(4f\	.
.	.	4r	8g\L	.
.	.	.	8f\J)	.
4B-'\ 4d-'\	.	4dd-/	4g'\	.
=11	=11	=11	=11	=11
2B-\ 2d-\	.	(4dd-/	4g\	.
.	.	8ee-/L	4r	.
.	.	8dd-/J	.	.
4B-'\ 4d-'\	.	4ee-'/)	4g'\	.
=12	=12	=12	=12	=12
2c\ 2e-\	.	4ee-/	(4g\	.
.	.	4r	8an\L	.
.	.	.	8g\J)	.
4c'\ 4e-'\	.	4ee-/	4a\	.
=13	=13	=13	=13	=13
2c\ 2e-\	.	(4ee-/	4an\	.
.	.	8ff/L	4r	.
.	.	8ee-/J	.	.
4c'\ 4e-'\	.	4ff'/)	4a'\	.
=14	=14	=14	=14	=14
2d-\ 2f\	.	2ff/	(4an\	.
.	.	.	8b-\L	.
.	.	.	8a\J)	.
4d-'\ 4f'\	.	4ff'/	4b-'\	.
=15	=15	=15	=15	=15
2d-\ 2f\	.	2ff/	2bn\	.
4d-'\ 4f'\	.	4gg'/	4b'\	.
*	*	*v	*v	*
=16	=16	=16	=16
2c;\ 2en;\	.	2g;/ 2cc;/	.
4r	.	(4cc\	p
=17	=17	=17	=17
2.r	.	4ff\	.
.	.	4aa-\	.
.	.	4een\	.
=18	=18	=18	=18
2.r	.	4ff\	.
.	.	4aa-\	.
.	.	4ccc\	.
=19	=19	=19	=19
2.r	.	4ddd-\	.
.	.	4bb-\	.
.	.	4eeen\	.
=20	=20	=20	=20
4r	.	4fff\	.
4r	.	4ccc\	.
*clefG2	*clefG2	*	*
(4cc\	pp	4aa-\	.
=21	=21	=21	=21
4dd-\	.	4bb-\	.
4b-\	.	4ddd-\	.
4een\	.	4gg\	.
=22	=22	=22	=22
4ff\	.	2aa-\)	.
4cc\)	.	.	.
*clefF4	*clefF4	*	*
4c\	.	4a-\ 4aa-\	.
=23	=23	=23	=23
*	*	*^	*
(4d-\	.	(2aa-/	2.b-\ 2.dd-\ 2.een\	.
4B-\	.	.	.	.
4en\	.	4gg/)	.	.
=24	=24	=24	=24	=24
4d-\	.	(2aa-/	2.b-\ 2.dd-\ 2.een\	.
4B-\	.	.	.	.
4en\)	.	4gg/)	.	.
*	*	*v	*v	*
=25	=25	=25	=25
2c\	.	4a-\ (4ff\	.
.	.	4b-\ 4gg\	.
4c\	.	4g\ 4een\)	.
=26	=26	=26	=26
4F\	.	4a-\ (4ff\	.
4r	.	4cc\	.
(4C/	.	4a-/)	.
=27	=27	=27	=27
*	*	*^	*
4D-\	.	(2a-/	2.B-\ 2.d-\ 2.en\	.
4BB-/	.	.	.	.
4En\	.	4g/)	.	.
=28	=28	=28	=28	=28
4D-\	.	(2a-/	2.B-\ 2.d-\ 2.en\	.
4BB-/	.	.	.	.
4En\)	.	4g/)	.	.
*	*	*v	*v	*
=29	=29	=29	=29
2C/	.	(4A-/ 4f/	.
.	.	4B-/ 4g/	.
4C/	.	4G/ 4en/	.
=30	=30	=30	=30
4FF/ 4F/	.	4A-/) 4f/	.
4r	.	4r	.
4r	.	4c/	p
=31	=31	=31	=31
*^	*	*^	*
(2B-/	[2.C\	.	2en/	2.c\	.
4A-/)	.	.	4f/	.	.
*	*	*	*v	*v	*
=32	=32	=32	=32	=32
2G/ (2B-/	2.C\]	.	(2c'/ 2en'/ 2g'/	.
4F/ 4A-/)	.	.	4c'/) 4f'/ 4a-'/	.
*v	*v	*	*	*
=33	=33	=33	=33
2.C\ 2.En\ 2.G\ 2.c\	.	4.en/ 4.g/ 4.cc/	ff
.	.	(8b-/L	p
.	.	8a-/	.
.	.	8g/J)	.
=34	=34	=34	=34
4F\ 4A-\ 4c\	.	(8b-/L	.
.	.	8a-/	.
4r	.	8g/	.
.	.	8f/J)	.
4r	.	4cc\	.
*clefG2	*clefG2	*	*
=35	=35	=35	=35
*^	*	*^	*
2g/ (2b-/	[2.c\	.	2een/ (2gg/	2.cc\	<
4f/ 4a-/	.	.	4ff/ 4aa-/	.	.
=36	=36	=36	=36	=36	=36
4en/ 4g/)	4c\]	.	4cc\	4gg/ 4bb-/)	.
4r	2r	.	4r	2r	.
*clefF4	*clefF4	*	*	*	*
4C'\ 4c'\	.	p	4een'\ 4gg'\ 4eeen'\	.	p
*v	*v	*	*	*	*
*	*	*v	*v	*
=37	=37	=37	=37
4FF'/ 4F'/	.	4ff'\ 4aa-'\ 4fff'\	.
4r	.	4r	.
4r	.	4r	.
=38	=38	=38	=38
4r	.	4r	.
4r	.	4r	.
=:|!	=:|!	=:|!	=:|!
*>C	*>C	*>C	*>C
*k[b-e-a-d-g-]	*k[b-e-a-d-g-]	*k[b-e-a-d-g-]	*k[b-e-a-d-g-]
4DD-/ 4D-/	pp	4F/ 4A-/ 4f/	pp
=39	=39	=39	=39
(2DD-'/ 2D-'/	.	(2F'/ 2A-'/ 2f'/	.
4DD-'/) 4D-'/	.	4F'/) 4A-'/ 4f'/	.
=40	=40	=40	=40
(2DD-'/ 2D-'/	.	(2F'/ 2A-'/ 2f'/	.
4DD-'/) 4D-'/	.	4F'/) 4A-'/ 4f'/	.
=41	=41	=41	=41
(2.DD-'/ 2.D-'/	.	[2.G-/ [2.B-/ 2.f/	.
=42	=42	=42	=42
2.DD-'/) 2.D-'/	.	2G-/] 2B-/] 2e-/	.
.	.	(8e-/L	.
.	.	8f/J)	.
=43	=43	=43	=43
(2CC'/ 2C'/	.	(2A-'/ 2e-'/ 2g-'/	.
4CC'/) 4C'/	.	4A-'/) 4e-'/ 4g-'/	.
=44	=44	=44	=44
(2CC'/ 2C'/	.	(2A-'/ 2e-'/ 2g-'/	.
4CC'/) 4C'/	.	4A-'/) 4e-'/ 4g-'/	.
=45	=45	=45	=45
[2.DD-/ 2.D-/	.	[2.A-/ 2.e-/ 2.g-/	.
=46	=46	=46	=46
4DD-/] 4D-/	.	4A-/] 4d-/ 4f/	.
4r	.	4r	.
4r	.	(8f/L	.
.	.	8gn/J)	.
=47	=47	=47	=47
2D-'\ (2A-'\	.	(2f'/ 2a-'/	.
4D-'\ 4A-'\)	.	4f'/) 4a-'/	.
=48	=48	=48	=48
2C'\ (2A-'\	.	(2e-'/ 2a-'/	.
4C'\ 4A-'\)	.	4e-'/) 4a-'/	.
=49	=49	=49	=49
2.BB-\ 2.E-\ (2.A-\	.	[2.d-/ [2.e-/ [2.a-/ [2.dd-/	.
=50	=50	=50	=50
2BB-\ 2E-\ 2Gn\)	.	2d-/] 2e-/] 2a-/] (2dd-/]	.
4C\ 4E-\ 4A-\	.	4c/ 4e-/ 4a-/ 4cc/)	.
=51	=51	=51	=51
*	*	*^	*
2D-\ 2F\ 2B-\	.	4cc/	2f\	.
.	.	4b-/	.	.
4Dn\ 4F\ 4c-\	.	4a-/	4f\	.
=52	=52	=52	=52	=52
2E-\ 2cn\	.	2a-/	(2e-\	.
4E-\ 4B-\	.	4gn/	4d-\)	.
*	*	*v	*v	*
=53	=53	=53	=53
*^	*	*	*
2Gn/	[2.AA-\	.	2.d-/ (2.b-/	.
[4E-/	.	.	.	.
=54	=54	=54	=54	=54
4E-/] 4A-/	4AA-\]	.	4c/ 4a-/)	.
4r	2r	.	4r	.
4r	.	.	4F/ 4A-/ 4f/	.
*v	*v	*	*	*
=55	=55	=55	=55
4r	.	2F/ 2A-/ 2f/	.
4DD-/ 4D-/	.	.	.
4r	.	4F/ 4A-/ 4f/	.
=56	=56	=56	=56
4r	.	2F/ 2A-/ 2f/	.
4DD-/ 4D-/	.	.	.
4r	.	4F/ 4A-/ 4f/	.
=57	=57	=57	=57
4r	.	2.G-/ 2.B-/ (2.f/	.
(4D-\	.	.	.
8E-\L	.	.	.
8F\J	.	.	.
=58	=58	=58	=58
8G-\L	.	4B-/ 4e-/)	.
8F\)	.	.	.
8E-'\	.	4r	.
8D-'\	.	.	.
8C'\	.	(8e-/L	.
8BB-'\J	.	8f/J)	.
=59	=59	=59	=59
4AAn'/	.	2An/ 2c/ 2e-/ 2g-/	.
4AA'/	.	.	.
4r	.	4A/ 4c/ 4e-/ 4g-/	.
=60	=60	=60	=60
4r	.	2An/ 2c/ 2e-/ 2g-/	.
4AAn'/	.	.	.
4r	.	4A/ 4c/ 4e-/ 4g-/	.
=61	=61	=61	=61
4r	.	(2.An/ 2.c/ 2.e-/ 2.g-/	.
(4AAn/	.	.	.
8BB-/L	.	.	.
8C/J	.	.	.
=62	=62	=62	=62
8D-/L	.	4B-/) 4d-/ 4f/	.
8C/)	.	.	.
8BB-'/	.	4r	.
8AA-'/	.	.	.
8GGn'/	.	(8gn/L	.
8FF'/J	.	8a-/J)	.
=63	=63	=63	=63
4EEn'/	.	2d-/ 2gn/ 2b-/	.
4EE'/	.	.	.
4r	.	4d-/ 4g/ 4b-/	.
=64	=64	=64	=64
4r	.	2d-/ 2gn/ 2b-/	.
4EEn'/	.	.	.
4r	.	4d-/ 4g/ 4b-/	.
=65	=65	=65	=65
4r	.	[2.c/ 2.gn/ (2.b-/	.
(4EEn'/	.	.	.
8FF/L	.	.	.
8GGn/J	.	.	.
=66	=66	=66	=66
8AA-/L	.	4c/] 4f/ 4a-/)	.
8GGn/)	.	.	.
8FF'/	.	4r	.
8EE-'/	.	.	.
8DD-'/	.	4A-/ 4a-/	.
8CC'/J	.	.	.
=67	=67	=67	=67
4DD-'/	.	4A-/ 4B-/ 4f/	.
4DD-'/	.	4r	.
4r	.	4A-/ 4B-/ 4f/	p
=68	=68	=68	=68
4r	.	4Gn/ 4B-/ 4e-/	.
4EE-/	.	4r	.
4r	.	4G/ 4B-/ 4e-/	.
=69	=69	=69	=69
4r	.	4A-/	pp
(8AAA-/L	.	4r	.
8CC/	.	.	.
8EE-/	.	4r	.
8AA-/J)	.	.	.
=70	=70	=70	=70
4AAA-/	.	2.r	.
4r	.	.	.
4F\ 4A-\ 4c-\	.	.	.
=71	=71	=71	=71
2F'\ 2A-'\ (2c-'\	<	2.r	.
4F'\ 4A-'\ 4c-'\)	.	.	.
=72	=72	=72	=72
2E-'\ 2F'\ 2A-'\ (2c-'\	.	2.r	.
4E-'\ 4F'\ 4A-'\ 4c-'\)	.	.	.
=73	=73	=73	=73
2.Dn\ 2.F\ 2.A-\ (2.c-\	>	4r	.
.	.	4r	.
.	.	[4fff\	.
=74	=74	=74	=74
4Dn\ 4F\ 4A-\ 4B-\)	.	(8fff\L]	.
.	.	8eee-\	.
4r	.	8dddn\	.
.	.	8ccc-\	.
4r	.	8bb-\	.
.	.	8aa-\J)	.
=75	=75	=75	=75
2E-'\ 2G-'\ (2B-'\	<	4gg-\	.
.	.	4r	.
4E-'\ 4G-'\ 4B-'\)	.	4r	.
=76	=76	=76	=76
2D-'\ 2E-'\ 2G-'\ (2B--'\	.	2.r	.
4D-'\ 4E-'\ 4G-'\ 4B--'\)	.	.	.
=77	=77	=77	=77
[2.C\ [2.E-\ [2.G-\ 2.B--\	>	4r	.
.	.	4r	.
.	.	[4eee-\	.
=78	=78	=78	=78
4C\] 4E-\] 4G-\] 4A-\	.	(8eee-\L]	.
.	.	8ddd-\	.
4r	.	8ccc\	.
.	.	8bb-\	.
4r	.	8aa-\	.
.	.	8gg-\J)	.
=79	=79	=79	=79
4D-'\	.	2f\ 2ff\	.
4d-'\	.	.	.
4r	.	4f\ 4a-\ 4ff\	.
=80	=80	=80	=80
4r	.	2f\ 2a-\ 2ff\	.
4d-'\	.	.	.
4r	.	4f\ 4a-\ 4ff\	.
=81	=81	=81	=81
4r	.	[2.g-\ [2.b-\ 2.ff\	.
(4d-\	.	.	.
8e-\L	.	.	.
8f\J	.	.	.
=82	=82	=82	=82
8g-\L	.	4g-\] 4b-\] 4ee-\	.
8f\)	.	.	.
8e-'\	.	4r	.
8d-'\	.	.	.
8c'\	.	8cc\ (8ee-\L	.
8B-'\J	.	8dd-\ 8ff\J)	.
=83	=83	=83	=83
4An'\	.	2cc\ 2ee-\ 2gg-\	<
*clefG2	*clefG2	*	*
4an'/	.	.	.
4r	.	4cc\ 4ee-\ 4gg-\	.
=84	=84	=84	=84
4r	.	2cc\ 2ee-\ 2gg-\	.
4an'/	.	.	.
4r	.	4cc\ 4ee-\ 4gg-\	.
=85	=85	=85	=85
4r	.	2.cc\ 2.ee-\ (2.gg-\	.
[2b-\	.	.	.
=86	=86	=86	=86
4b-\]	.	4dd-\ 4ff\)	.
4r	.	4r	.
4r	.	4r	.
*clefF4	*clefF4	*	*
=87	=87	=87	=87
(2GGn'/ 2En'/	pp	(2d-'/ 2b-'/	pp
4GG'/) 4E'/	.	4d-'/) 4b-'/	.
=88	=88	=88	=88
(2GGn'/ 2En'/	.	(2d-'/ 2b-'/	.
4GG'/) 4E'/	.	4d-'/) 4b-'/	.
=89	=89	=89	=89
[2.AA-/ 2.En/	.	[2.d-/ 2.b-/	.
=90	=90	=90	=90
4AA-/] 4F/	.	4d-/] 4a-/	.
4r	.	4r	.
4r	.	4r	.
=91	=91	=91	=91
2AA-\ 2G-\	pp	2c/ 2a-/	pp
4AA-\ 4G-\	.	4c/ 4a-/	.
=92	=92	=92	=92
2AA-\ 2G-\	.	2c/ 2a-/	.
4AA-\ 4G-\	.	4c/ 4a-/	.
=93	=93	=93	=93
4D-\ 4F\	.	4d-/	pp
4r	.	4r	.
4r	.	4r	.
=94	=94	=94	=94
4r	.	2.r	.
4r	.	.	.
4F\ 4A-\ 4c-\	.	.	.
=95	=95	=95	=95
2F'\ 2A-'\ (2c-'\	<	2.r	.
4F'\ 4A-'\ 4c-'\)	.	.	.
=96	=96	=96	=96
2E-'\ 2F'\ 2A-'\ (2c-'\	.	2.r	.
4E-'\ 4F'\ 4A-'\ 4c-'\)	.	.	.
=97	=97	=97	=97
[2.Dn\ [2.F\ [2.A-\ 2.c-\	>	4r	.
.	.	4r	.
.	.	ffq/	.
.	.	[4fff\	.
=98	=98	=98	=98
4D\] 4F\] 4A-\] 4B-\	.	(8fff\L]	.
.	.	8eee-\	.
4r	.	8dddn\	.
.	.	8ccc-\	.
4r	.	8bb-\	.
.	.	8aa-\J)	.
=99	=99	=99	=99
2E-'\ 2G-'\ (2B-'\	<	4gg-'\	.
.	.	4r	.
4E-'\ 4G-'\ 4B-'\)	.	4r	.
=100	=100	=100	=100
2D-'\ 2E-'\ 2G-'\ (2B--'\	.	2.r	.
4D-'\ 4E-'\ 4G-'\ 4B--'\)	.	.	.
=101	=101	=101	=101
[2.C\ [2.E-\ [2.G-\ 2.B--\	>	4r	.
.	.	4r	.
.	.	ee-q/	.
.	.	[4eee-\	.
=102	=102	=102	=102
4C\] 4E-\] 4G-\] 4A-\	.	(8eee-\L]	.
.	.	8ddd-\	.
4r	.	8ccc\	.
.	.	8bb-\	.
4r	.	8aa-\	.
.	.	8gg-\J)	.
=103	=103	=103	=103
4D-'\	.	2f\ 2ff\	.
4d-'\	.	.	.
4r	.	4f\ 4a-\ 4ff\	.
=104	=104	=104	=104
4r	.	2f\ 2ff\	.
4d-'\	.	.	.
4r	.	4f\ 4a-\ 4ff\	.
=105	=105	=105	=105
4r	.	[2.g-\ [2.b-\ 2.ff\	.
(4d-\	.	.	.
8e-\L	.	.	.
8f\J	.	.	.
=106	=106	=106	=106
8g-\L	.	4g-\] 4b-\] 4ee-\	.
8f\)	.	.	.
8e-'\	.	4r	.
8d-'\	.	.	.
8c'\	.	8cc\ (8ee-\L	.
8B-'\J	.	8dd-\ 8ff\J)	.
=107	=107	=107	=107
4An'\	.	2cc\ 2ee-\ 2gg-\	<
*clefG2	*clefG2	*	*
4an'/	.	.	.
4r	.	4cc\ 4ee-\ 4gg-\	.
=108	=108	=108	=108
4r	.	2cc\ 2ee-\ 2gg-\	.
4an'/	.	.	.
4r	.	4cc\ 4ee-\ 4gg-\	.
=109	=109	=109	=109
4r	.	2.cc\ 2.ee-\ (2.gg-\	.
[2b-\	.	.	.
=110	=110	=110	=110
4b-\]	.	4dd-\ 4ff\)	.
4r	.	4r	.
4r	.	4r	.
*clefF4	*clefF4	*	*
=111	=111	=111	=111
(2GGn'/ 2En'/	pp	(2d-'/ 2b-'/	pp
4GG'/) 4E'/	.	4d-'/) 4b-'/	.
=112	=112	=112	=112
(2GGn'/ 2En'/	.	(2d-'/ 2b-'/	.
4GG'/) 4E'/	.	4d-'/) 4b-'/	.
=113	=113	=113	=113
[2.AA-/ 2.En/	.	[2.d-/ 2.b-/	.
=114	=114	=114	=114
2.AA-/] 2.F/	.	2.d-/] 2.b--/	.
=115	=115	=115	=115
2AA-\ 2G-\	pp	2c/ 2a-/	pp
4AA-\ 4G-\	.	4c/ 4a-/	.
=116	=116	=116	=116
2AA-\ 2G-\	.	2c/ 2a-/	.
4AA-\ 4G-\	.	4c/ 4a-/	.
=117	=117	=117	=117
4D-\ 4F\	.	4d-/	.
4r	.	4r	.
4r	.	4r	.
=118	=118	=118	=118
2.r	.	2.r	.
=119	=119	=119	=119
(2D-'\	pp	(2d-'/	pp
4D-'\)	.	4d-'/)	.
=120	=120	=120	=120
(2D-'\	.	(2d-'/	.
4D-'\)	.	4d-'/)	.
=121	=121	=121	=121
[2.C/	.	[2.c/	.
=122	=122	=122	=122
2.C/]	.	2.c/]	.
=123	=123	=123	=123
2CC/ 2C/	.	2Gn/ 2B-/ 2en/	.
4CC/ 4C/	.	4G/ 4B-/ 4e/	.
=124	=124	=124	=124
2CC/ 2C/	.	2Gn/ 2B-/ 2en/	.
4CC/ 4C/	.	4G/ 4B-/ 4e/	.
=125	=125	=125	=125
*k[b-e-a-d-]	*k[b-e-a-d-]	*k[b-e-a-d-]	*k[b-e-a-d-]
4FF/	p	4F/ 4f/	p
4AA-/	.	4A-/	.
4EEn/	.	4En/	.
=126	=126	=126	=126
4FF/	.	4F/	.
4AA-/	.	4A-/	.
4C/	.	4c/	.
=127	=127	=127	=127
4D-\	.	4d-/	.
4BB-/	.	4B-/	.
4En\	.	4en/	.
=128	=128	=128	=128
4F\	.	4f/	.
4C/	.	4c/	.
4G\	.	4g/	.
=129	=129	=129	=129
*	*	*^	*
4A-\	.	2a-/	4a-\	.
4F\	.	.	4f\	.
4G\ 4B-\	.	4b-/	[4e-\	.
=130	=130	=130	=130	=130
*^	*	*	*	*
2A-/ 2c/	4A-\	.	2a-/ 2cc/	4e-\]	.
.	4F\	.	.	2f\	.
.	.	.	(ee-q/	.	.
4r	4D-\	.	4b-/ 4dd-/)	.	.
*v	*v	*	*	*	*
*	*	*v	*v	*
=131	=131	=131	=131
4E-\	.	2e-/ 2a-/ 2cc/	.
4EE-/	.	.	.
4EE-/	.	4d-/ 4g/ 4b-/	.
=132	=132	=132	=132
4AA-'/	.	4c/ 4a-/	.
4AAA-'/	.	4r	.
(4CC/	.	8r	.
*	*	*clefF4	*clefF4
.	.	[8C/	.
=133	=133	=133	=133
4FF/	.	(8C/]	<
.	.	4F\	.
4AA-/	.	.	.
.	.	4A-\	.
4EEn/	.	.	.
.	.	[8En\	.
=134	=134	=134	=134
4FF/	.	8E\]	.
.	.	4F\	.
4AA-/	.	.	.
.	.	4A-\	.
4C/	.	.	.
.	.	[8c\	.
=135	=135	=135	=135
4D-\	.	8c\]	.
.	.	4d-\	.
4BB-/	.	.	.
.	.	4B-\	.
4En\	.	.	.
*	*	*clefG2	*clefG2
.	.	[8en/	.
=136	=136	=136	=136
4F\	.	8e/]	.
.	.	4f/	.
4C/	.	.	.
.	.	4c/	.
4G\	.	.	.
.	.	[8g/	.
=137	=137	=137	=137
4A-\	.	8g/]	.
.	.	4a-/	.
4F\	.	.	.
.	.	4f/)	.
4G\ 4B-\	.	.	.
.	.	[8b-\	.
=138	=138	=138	=138
*	*	*^	*
4A-\ 4c\	.	4.cc/	8b-\]	.
.	.	.	4.a-\	.
4F\	.	.	.	.
.	.	(8cc/	.	.
4D-\	.	8ee-/L	8b-\L	.
.	.	8dd-/J	8f\J	.
=139	=139	=139	=139	=139
4E-\)	.	4.cc/	8b-\L	.
.	.	.	[8e-\J	.
4EE-/	.	.	4e-\] 4a-\	.
.	.	8dd-/L	.	.
4EE-/	.	8b-/	4d-\ 4g\	.
.	.	8cc/J	.	.
=140	=140	=140	=140	=140
4AA-'/	.	4a-/)	4c\	.
4AAA-'/	.	4r	4r	.
4r	.	4cc/	4r	.
=141	=141	=141	=141	=141
8A-\L	.	(4cc/	4r	.
8c\	.	.	.	.
8A-\	.	8bn/L	4r	.
8c\	.	8cc/J	.	.
8A-\	.	4dd-'/)	4f'\	.
8c\J	.	.	.	.
=142	=142	=142	=142	=142
8B-\L	.	4dd-/	(4f\	.
8d-\	.	.	.	.
8B-\	.	4r	8en\L	.
8d-\	.	.	8f\J)	.
8B-\	.	4dd-/	4g'\	.
8d-\J	.	.	.	.
=143	=143	=143	=143	=143
8B-\L	.	(4dd-/	4g\	.
8d-\	.	.	.	.
8B-\	.	8cc/L	4r	.
8d-\	.	8dd-/J	.	.
8B-\	.	4ee-'/)	4g'\	.
8d-\J	.	.	.	.
=144	=144	=144	=144	=144
8c\L	.	4ee-/	(4g\	.
8e-\	.	.	.	.
8c\	.	4r	8f\L	.
8e-\	.	.	8g\J)	.
8c\	.	4ee-/	4an\	.
8e-\J	.	.	.	.
=145	=145	=145	=145	=145
8c\L	.	(4ee-/	4an\	.
8e-\	.	.	.	.
8c\	.	8ddn/L	4r	.
8e-\	.	8ee-/J	.	.
8c\	.	4ff/)	4a'\	.
8e-\J	.	.	.	.
=146	=146	=146	=146	=146
8d-\L	.	4ff/	(4an\	.
8f\	.	.	.	.
8d-\	.	4r	8g\L	.
8f\	.	.	8a\J)	.
8d-\	.	4ff'/	4b-'\	.
8f\J	.	.	.	.
=147	=147	=147	=147	=147
8dn\L	.	2ff/	2bn\	.
8f\	.	.	.	.
8d\	.	.	.	.
8f\	.	.	.	.
8d\	.	4gg/	4b\	.
8f\J	.	.	.	.
*clefG2	*clefG2	*	*	*
=148	=148	=148	=148	=148
2c;/ 2en;/	.	2cc;/	2g\	.
4r	.	4r	(4cc\	.
*	*	*v	*v	*
=149	=149	=149	=149
4r	.	4ff\	.
4r	.	4aa-\	.
(4cc\	pp	[4een\	.
=150	=150	=150	=150
4a-/	.	8ee\]	.
.	.	4ff\	.
4f/	.	.	.
.	.	4aa-\	.
4a-/	.	.	.
.	.	[8ccc\	.
=151	=151	=151	=151
4b-\	.	8ccc\]	.
.	.	4ddd-\	.
4f/	.	.	.
.	.	4bb-\	.
4b-\	.	.	.
.	.	[8eeen\	.
=152	=152	=152	=152
4a-/	.	8eee\]	.
.	.	4fff\	.
4f/	.	.	.
.	.	4ccc\	.
4cc\	.	.	.
.	.	[8aa-\	.
=153	=153	=153	=153
4dd-\	.	8aa-\]	.
.	.	4bb-\	.
4b-\	.	.	.
.	.	4ddd-\	.
4een\	.	.	.
.	.	[8gg\	.
=154	=154	=154	=154
4ff\	.	8gg\]	.
.	.	4aa-\)	.
4cc\)	.	.	.
.	.	4aa-\	.
*clefF4	*clefF4	*	*
(4c\	.	.	.
.	.	8aa-\	.
=155	=155	=155	=155
*	*	*^	*
4d-\	.	(2aa-/	8r	.
.	.	.	4b-\ 4dd-\	.
4B-\	.	.	.	.
.	.	.	4b-\ 4dd-\	.
4en\)	.	4gg/)	.	.
.	.	.	8b-\ 8dd-\	.
=156	=156	=156	=156	=156
(4d-\	.	(2aa-/	8r	.
.	.	.	4b-\ 4dd-\	.
4B-\	.	.	.	.
.	.	.	4b-\ 4dd-\	.
4en\)	.	4gg/)	.	.
.	.	.	8b-\ 8dd-\	.
=157	=157	=157	=157	=157
4c\	.	(4ff/	8r	.
.	.	.	4a-\	.
4c\	.	4gg/	.	.
.	.	.	4b-\	.
4c\	.	4een/)	.	.
.	.	.	8g\	.
=158	=158	=158	=158	=158
4F\	.	(8ff/L	4a-\	.
.	.	8ee-/	.	.
4r	.	8dd-/	4r	.
.	.	8cc/	.	.
(4C/	.	8b-/	4r	.
.	.	8a-/J)	.	.
=159	=159	=159	=159	=159
4D-\	.	(2a-/	8r	.
.	.	.	4B-\ 4d-\	.
4BB-/	.	.	.	.
.	.	.	4B-\ 4d-\	.
4En\)	.	4g/)	.	.
.	.	.	8B-\ 8d-\	.
=160	=160	=160	=160	=160
(4D-\	.	(2a-/	8r	.
.	.	.	4B-\ 4d-\	.
4BB-/	.	.	.	.
.	.	.	4B-\ 4d-\	.
4En\)	.	4g/)	.	.
.	.	.	8B-\ 8d-\	.
=161	=161	=161	=161	=161
4C/	.	(4f/	8r	.
.	.	.	4A-\	.
4C/	.	4g/	.	.
.	.	.	4B-\	.
4C/	.	4en/)	.	.
.	.	.	8G\	.
*	*	*v	*v	*
=162	=162	=162	=162
4FF/ 4F/	.	4A-/ 4f/	.
4r	.	4r	.
4r	.	4c/	<
=163	=163	=163	=163
*^	*	*^	*
4r	2.C\	.	(2en/	8r	.
.	.	.	.	4c\	.
(4B-/	.	.	.	.	.
.	.	.	.	4c\	.
4A-/)	.	.	4f/)	.	.
.	.	.	.	8c\	.
=164	=164	=164	=164	=164	=164
4r	2.C\	.	2en/ (2g/	8r	.
.	.	.	.	4c\	.
4G/ (4B-/	.	.	.	.	.
.	.	.	.	4c\	.
4F/ 4A-/)	.	.	4f/ 4a-/)	.	.
.	.	.	.	8c\	.
*v	*v	*	*	*	*
*	*	*v	*v	*
=165	=165	=165	=165
2.C\ 2.En\ 2.G\ 2.c\	.	4.en/ 4.g/ 4.cc/	.
.	.	(8b-/L	.
.	.	8a-/	.
.	.	8g/J)	.
=166	=166	=166	=166
4F\ 4A-\ 4c\	.	(8b-/L	.
.	.	8a-/	.
4r	.	8g/	.
.	.	8f/J)	.
4r	.	4cc\	.
*clefG2	*clefG2	*	*
=167	=167	=167	=167
*^	*	*^	*
4r	[2.c\	.	2een/ (2gg/	8r	<
.	.	.	.	4cc\	.
4g/ (4b-/	.	.	.	.	.
.	.	.	.	4cc\	.
4f/ 4a-/	.	.	4ff/ 4aa-/	.	.
.	.	.	.	[8cc\	.
=168	=168	=168	=168	=168	=168
4en/ 4g/)	4c\]	.	4gg/ 4bb-/)	(8cc\L]	.
.	.	.	.	8cc\	.
4r	2r	.	4r	8bn\	.
.	.	.	.	8cc\J)	.
*clefF4	*clefF4	*	*	*	*
4C'\ 4c'\	.	f	4gg/ 4eeen/	4een\	f
*v	*v	*	*	*	*
=169	=169	=169	=169	=169
4FF'/ 4F'/	.	4aa-/ 4fff/	4ff\	.
4r	.	2r	4r	.
4r	.	.	4r	.
*	*	*v	*v	*
=170	=170	=170	=170
2.r	.	2.r	.
==	==	==	==
*-	*-	*-	*-
!!!ENC: Craig Stuart Sapp
!!!END: 2008/02/25/
